X: 47
T: No_52_Second_Song_of_Hunci_Dance.krn
N: Derived from No_52_Second_Song_of_Hunci_Dance.krn
%%abc-version 2.0
%%abcx-abcm2ps-target-version 5.9.1 (29 Sep 2008)
%%abc-creator hum2abc beta
%%abcx-conversion-date 2019/03/15 08:25:35
%%humdrum-veritas 1586015615
%%humdrum-veritas-data 4193979224
%%linebreak <none>
%%barnumbers 0
L: 1/8
M: 3/4
K: G clef=bass
[K:clef=bass][M:3/4]z4E,2 ]|:  
B,2(3B,A,A, (3G,G,G, | 
G,3/G,/G,2G,2 | 
A,2(3A,G,G, (3G,E,E, | 
[M:2/4]E,3/E,/ E, z | 
E,/D,3/ G,3/E,/ | 
E,3/E,/E,2 | 
E,/D,3/ G,/E,3/ | 
[M:3/8]E,/ z/ G,E,/E,/ | 
[M:2/4]E,3/E,/ E,3/E,/ | 
E,3/E,/E,2 | 
[M:3/4]z4E,2 :|]  



